X:1
T:The Trooper and the Maid
M:2/4
L:1/8
K:F
 z2 z D| D/2 G3/2 GA/2-G/2| FD D3/2 C/2| FF FA| c2 dd/2-c/2| BG AF|\
 GF D D/2D/2| d3/2 d/2c/2-B/2 A| G2 G z|

